X: 1
T: Cock O' The North
R: jig
M: 6/8
L: 1/8
K: Amix
cdc cBA|cde f2e|cdc cBA|B3 e2d|
cdc cBA|cde f2e|cAc BGB|A3 A3:|
|:a2e f2e|a2e f2e|cdc cBA|BcB B2e|
a2e f2e|a2e f2e|cAc BGB|A3 A3:||


Tune 1218	Setting 24586

